svgs/sharp-light/door-closed.svg

<svg xmlns="http://www.w3.org/2000/svg" viewBox="0 0 576 512"><!--! Font Awesome Pro 6.6.0 by @fontawesome - https://fontawesome.com License - https://fontawesome.com/license (Commercial License) Copyright 2024 Fonticons, Inc. --><path d="M448 32l0 448-320 0 0-448 320 0zm32 448l0-448 0-32L448 0 128 0 96 0l0 32 0 448-80 0L0 480l0 32 16 0 80 0 32 0 320 0 32 0 80 0 16 0 0-32-16 0-80 0zM408 256a24 24 0 1 0 -48 0 24 24 0 1 0 48 0z"/></svg>

<svg xmlns="http://www.w3.org/2000/svg" viewBox="0 0 576 512"><!--! Font Awesome Pro 6.4.0 by @fontawesome - https://fontawesome.com License - https://fontawesome.com/license (Commercial License) Copyright 2023 Fonticons, Inc. --><path d="M448 32V480H128V32H448zm32 448V32 0H448 128 96V32 480H16 0v32H16 96h32H448h32 80 16V480H560 480zM408 256a24 24 0 1 0 -48 0 24 24 0 1 0 48 0z"/></svg>
